resources/icons/20px/curly-braces.svg

<svg width="20" height="20" viewBox="0 0 20 20" fill="none" xmlns="http://www.w3.org/2000/svg">
<path d="M8 3C6.70751 3 5.69705 3.36852 5.16824 4.30528C4.93388 4.72042 4.8479 5.1639 4.81511 5.55016C4.78251 5.93411 4.79811 6.33104 4.81353 6.67041C4.84799 7.42841 4.86902 7.92547 4.7347 8.31351C4.67916 8.47398 4.60057 8.59574 4.48134 8.69894C4.35661 8.80688 4.14135 8.93389 3.75746 9.02986C3.3123 9.14115 3 9.54113 3 10C3 10.4589 3.3123 10.8589 3.75746 10.9701C4.14135 11.0661 4.35661 11.1931 4.48134 11.3011C4.60057 11.4043 4.67916 11.526 4.7347 11.6865C4.86902 12.0745 4.84799 12.5716 4.81353 13.3296C4.79811 13.669 4.78251 14.0659 4.81511 14.4498C4.8479 14.8361 4.93388 15.2796 5.16824 15.6947C5.69705 16.6315 6.70751 17 8 17C8.55228 17 9 16.5523 9 16C9 15.4477 8.55228 15 8 15C7.06686 15 6.93432 14.7564 6.91147 14.7144L6.90989 14.7115C6.8708 14.6423 6.82788 14.5155 6.80794 14.2806C6.7878 14.0435 6.79564 13.7685 6.81147 13.4204C6.81358 13.3741 6.81594 13.3259 6.81837 13.276C6.84841 12.6627 6.89062 11.8006 6.62467 11.0323C6.4985 10.6678 6.30254 10.3138 6.00962 10C6.30254 9.68618 6.4985 9.33223 6.62467 8.96774C6.89062 8.19944 6.84841 7.33729 6.81837 6.72396C6.81594 6.67416 6.81357 6.62593 6.81147 6.57959C6.79564 6.23146 6.7878 5.95651 6.80794 5.71937C6.82788 5.48454 6.8708 5.3577 6.90989 5.28847L6.91147 5.2856C6.93432 5.24359 7.06686 5 8 5C8.55228 5 9 4.55228 9 4C9 3.44772 8.55228 3 8 3Z" fill="#5F6B7C"/>
<path d="M12 3C13.2925 3 14.3029 3.36852 14.8318 4.30528C15.0661 4.72042 15.1521 5.1639 15.1849 5.55016C15.2175 5.93411 15.2019 6.33104 15.1865 6.67041C15.152 7.42841 15.131 7.92547 15.2653 8.31351C15.3208 8.47398 15.3994 8.59574 15.5187 8.69894C15.6434 8.80688 15.8587 8.93389 16.2425 9.02986C16.6877 9.14115 17 9.54113 17 10C17 10.4589 16.6877 10.8589 16.2425 10.9701C15.8587 11.0661 15.6434 11.1931 15.5187 11.3011C15.3994 11.4043 15.3208 11.526 15.2653 11.6865C15.131 12.0745 15.152 12.5716 15.1865 13.3296C15.2019 13.669 15.2175 14.0659 15.1849 14.4498C15.1521 14.8361 15.0661 15.2796 14.8318 15.6947C14.3029 16.6315 13.2925 17 12 17C11.4477 17 11 16.5523 11 16C11 15.4477 11.4477 15 12 15C12.9331 15 13.0657 14.7564 13.0885 14.7144L13.0901 14.7115C13.1292 14.6423 13.1721 14.5155 13.1921 14.2806C13.2122 14.0435 13.2044 13.7685 13.1885 13.4204C13.1864 13.3741 13.1841 13.326 13.1816 13.2763C13.1516 12.663 13.1094 11.8006 13.3753 11.0323C13.5015 10.6678 13.6975 10.3138 13.9904 10C13.6975 9.68618 13.5015 9.33223 13.3753 8.96774C13.1094 8.19944 13.1516 7.33729 13.1816 6.72396C13.1841 6.67413 13.1864 6.62595 13.1885 6.57959C13.2044 6.23146 13.2122 5.95651 13.1921 5.71937C13.1721 5.48454 13.1292 5.3577 13.0901 5.28847L13.0885 5.2856C13.0657 5.24359 12.9331 5 12 5C11.4477 5 11 4.55228 11 4C11 3.44772 11.4477 3 12 3Z" fill="#5F6B7C"/>
</svg>

<svg xmlns="http://www.w3.org/2000/svg" viewBox="0 0 20 20">
  <path d="M8 3c-1.292 0-2.303.369-2.832 1.305-.234.415-.32.859-.353 1.245-.032.384-.017.781-.001 1.12.034.758.055 1.255-.08 1.644a.85.85 0 0 1-.253.385c-.124.108-.34.235-.724.33a1 1 0 0 0 0 1.941c.384.096.6.223.724.331.12.103.198.225.254.386.134.388.113.885.079 1.643-.016.339-.031.736.001 1.12.033.386.119.83.353 1.245C5.697 16.63 6.708 17 8 17a1 1 0 1 0 0-2c-.933 0-1.066-.244-1.089-.286l-.001-.003c-.04-.069-.082-.196-.102-.43a7 7 0 0 1 .003-.86l.007-.145c.03-.613.073-1.475-.193-2.244A2.9 2.9 0 0 0 6.01 10c.293-.314.489-.668.615-1.032.266-.769.223-1.63.193-2.244l-.007-.144a7 7 0 0 1-.003-.86c.02-.235.063-.362.102-.432l.001-.002C6.934 5.244 7.067 5 8 5a1 1 0 0 0 0-2M12 3c1.293 0 2.303.369 2.832 1.305.234.415.32.859.353 1.245.032.384.017.781.002 1.12-.035.758-.056 1.255.078 1.644.056.16.134.282.254.385.124.108.34.235.723.33a1 1 0 0 1 0 1.941c-.383.096-.599.223-.723.331a.85.85 0 0 0-.254.386c-.134.388-.113.885-.079 1.643.016.339.031.736-.001 1.12-.033.386-.119.83-.353 1.245C14.302 16.63 13.292 17 12 17a1 1 0 1 1 0-2c.933 0 1.066-.244 1.088-.286l.002-.003c.04-.069.082-.196.102-.43.02-.238.012-.513-.004-.86l-.006-.145c-.03-.613-.073-1.475.193-2.244.127-.364.322-.718.615-1.032a2.9 2.9 0 0 1-.615-1.032c-.266-.769-.223-1.63-.193-2.244l.006-.144c.016-.349.024-.623.004-.86-.02-.235-.063-.362-.102-.432l-.002-.002C13.067 5.244 12.934 5 12 5a1 1 0 1 1 0-2"/>
</svg>
